X: 140
P: Longways for as many as will
M: 3/4
L: 1/4
K: Dm
(df)d | (^cA)^c | (df)d | ^c2A | (df)d | (eg)e | (fa)^c | d2e |\
(fa)f | (gb)[ag] | (ab)a | g2a | (ba)g |(ac)f | (ga)e | f2 :|
|: c |\
(Ac)A | (Gc)G | (Ac)A | G2c | Acf | def | efd | ^c2a |\
fad | ^cAa | fad | ^c2a | fad | ^cAd | d>e^c | d2 :|

